X: 13072
T: Finnish, The
R: polka
M: 2/4
K: Dmajor
aa/a/ aa/a/|a^g/a/ ba|ff/f/ ff/f/|fe/f/ gf|
ee/e/ dd/d/|cc/c/ BB/B/|Ag fe|1 dc BA:|2 d4||
A3/2A/ Ad|f4|fe/f/ gf|e2 "^Hoy!"z2|
ee/e/ dd/d/|cc/c/ BB/B/|Ag fe|1 dc BA:|2 d4||

